icon-themes/sifr_svg/cmd/lc_leavegroup.svg

<svg viewBox="0 0 24 24" xmlns="http://www.w3.org/2000/svg"><path d="m18 0v1c0 .2653.0931.53058.28125.71875l2.28125 2.28125h-7.5625v2h7.5625l-2.28125 2.28125c-.18811.18818-.28125.348418-.28125.71875v1h1c.26529 0 .53057-.09304.71875-.28125l4-4 .28125-.28125v-.875l-.28125-.28125-4-4c-.18817-.18814-.45344-.28125-.71875-.28125zm-17 1v3h3v-3zm8 4c-2.7614237 0-5 2.2385763-5 5 0 2.761424 2.2385763 5 5 5 2.761424 0 5-2.238576 5-5 0-2.7614237-2.238576-5-5-5zm5.910156 6c-.425619 2.515297-2.395199 4.486444-4.910156 4.914062v3.085938h9v-8zm-13.910156 9v3h3v-3zm19 0v3h3v-3z" fill="#555753"/></svg>

<svg xmlns="http://www.w3.org/2000/svg" viewBox="0 0 24 24">
  <path
     style="fill:#555753"
     d="M 18 0 L 18 1 C 18 1.2653 18.0931 1.53058 18.28125 1.71875 L 20.5625 4 L 13 4 L 13 6 L 20.5625 6 L 18.28125 8.28125 C 18.09314 8.46943 18 8.629668 18 9 L 18 10 L 19 10 C 19.26529 10 19.53057 9.90696 19.71875 9.71875 L 23.71875 5.71875 L 24 5.4375 L 24 4.5625 L 23.71875 4.28125 L 19.71875 0.28125 C 19.53058 0.09311 19.26531 0 19 0 L 18 0 z M 1 1 L 1 4 L 4 4 L 4 1 L 1 1 z M 9 5 C 6.2385763 5 4 7.2385763 4 10 C 4 12.761424 6.2385763 15 9 15 C 11.761424 15 14 12.761424 14 10 C 14 7.2385763 11.761424 5 9 5 z M 14.910156 11 C 14.484537 13.515297 12.514957 15.486444 10 15.914062 L 10 19 L 19 19 L 19 11 L 14.910156 11 z M 1 20 L 1 23 L 4 23 L 4 20 L 1 20 z M 20 20 L 20 23 L 23 23 L 23 20 L 20 20 z "
     />
</svg>
